X:1
T:Title
%%score { ( 1 3 ) | ( 2 4 ) }
L:1/8
Q:1/4=116
M:3/4
K:Db
V:1 treble nm="Grand Piano"
V:3 treble 
V:2 bass 
V:4 bass 
V:1
 [FA]3 [GB] [FA]2 | F4 D2 | [DB]3 [B,DG] [Dd]2 | [DA]4 z2 | [FA]3 [GB] [FA]2 | F2 E2 D2 | %6
w: E.~E.~Meyer * *||||||
 [DF]3 [CE] [_C=D]2 | C4- [CA]2 | A3 B A2 | F2 E2 D2 | B3 G d2 | A4 A2 | d3 [Dc] [DB]2 | A4 D[DE] | %14
w: ||||||||
 [DF]2 [CF]3 [CE] | D4 z2 | F3 E F2 | G4 G2 | G3 F G2 | A6 | [Fd]3 [Gc] [Ad]2 | B4 e2 | %22
w: ||||||||
 d2 d2 [Ec]2 | [Fd]4 z2 | F3 E F2 | G4 G2 | G3 F G2 | A6 | [Fd]3 [Gc] [Ad]2 | B4 e2 | d2 d2 [Ec]2 | %31
w: |||||||||
 [Fd]4 z2 |] %32
w: |
V:2
 [D,D]3 [D,D] [D,D]2 | [D,A,D]4 [D,F,]2 | [G,,G,]3 G,, [B,,G,]2 | [D,F,]4 z2 | %4
 [D,D]3 [D,D] [D,D]2 | [D,A,D]2 [D,G,D]2 [D,F,]2 | [A,,A,]3 [A,,A,] [A,,A,]2 | z2 z2 E,2 | %8
 [D,F,D]3 [D,G,D] [D,F,D]2 | [D,A,D]2 [E,G,C]2 [F,A,_C]2 | [G,B,]3 [G,B,D] [G,B,D]2 | %11
 [F,A,D]4 [D,F,D]2 | [G,,B,D]3 [G,,A,] [B,,G,]2 | [D,F,D]4 [B,,F,][B,,G,] | %14
 [A,,A,]2 [A,,A,]3 [A,,G,] | [D,F,]4 z2 | [D,A,D]3 [D,A,C] [D,A,D]2 | [E,A,C]4 [E,A,C]2 | %18
 [E,A,C]3 [E,A,C] [E,A,C]2 | [F,A,D]6 | [D,A,]3 [E,A,] [F,D]2 | [G,DG]4 [G,B,G]2 | %22
 [A,F]2 [A,F]2[K:bass] [A,,A,]2 | [D,A,]4 z2 | [D,A,D]3 [D,A,C] [D,A,D]2 | [E,A,C]4 [E,A,C]2 | %26
 [E,A,C]3 [E,A,C] [E,A,C]2 | [F,A,D]6 | [D,A,]3 [E,A,] [F,D]2 | [G,DG]4 [G,B,G]2 | %30
 [A,F]2 [A,F]2[K:bass] [A,,A,]2 | [D,A,]4 z2 |] %32
V:3
 x6 | x6 | x6 | x6 | x6 | x6 | x6 | [A,E]4 z2 | x6 | x6 | x6 | x6 | x6 | x6 | x6 | x6 | x6 | x6 | %18
 x6 | x6 | x6 | x6 | x6 | x6 | x6 | x6 | x6 | x6 | x6 | x6 | x6 | x6 |] %32
V:4
 x6 | x6 | x6 | x6 | x6 | x6 | x6 | A,,6 | x6 | x6 | x6 | x6 | x6 | x6 | x6 | x6 | x6 | x6 | x6 | %19
 x6 | x6 | x6 | x4[K:bass] x2 | x6 | x6 | x6 | x6 | x6 | x6 | x6 | x4[K:bass] x2 | x6 |] %32

